X: 1
T: Banish Misfortune
C: Trad.
M: 6/8
R: Jig
L: 1/8
S: Matt Wood
K: Dmix
|:fed cAG|A2d cAG|F2D DED|FEF GFG|
AGA cAG|AGA cde|fed cAG|Ad^c d3:|
|:f2d d^cd|f2g agf|e2c cBc|e2f gfe|
f2g agf|e2f gfe|fed cAG|Ad^c d3:|
|:f2g e2f|ded c2d|AAA BAG|FFF GFD|
c3 cAG|AGA cde|fed cAG|Ad^c d3:|
